assets/components_previews/dynamic-rendering/light/cond.svg

<svg xmlns="http://www.w3.org/2000/svg" width="320" height="232" fill="none" viewBox="0 0 320 232"><path fill="#AA99EC" fill-rule="evenodd" d="M165.118 103.222a1 1 0 0 0 .104 1.411l1.84 1.585c.366.316.587.508.728.657-.141.149-.362.341-.728.657l-1.84 1.586a1 1 0 0 0 1.306 1.515l1.84-1.586.043-.038c.349-.3.684-.589.923-.859.262-.296.541-.713.541-1.275s-.279-.979-.541-1.275c-.239-.27-.574-.558-.923-.859l-.043-.038-1.84-1.585a1 1 0 0 0-1.41.104m-2.486 0a1 1 0 0 1-.104 1.411l-1.84 1.585c-.366.316-.587.508-.728.657.141.149.362.341.728.657l1.84 1.586a1 1 0 0 1-1.306 1.515l-1.84-1.586-.043-.038c-.349-.3-.684-.589-.923-.859-.262-.296-.541-.713-.541-1.275s.279-.979.541-1.275c.239-.27.574-.558.923-.859l.043-.038 1.84-1.585a1 1 0 0 1 1.41.104" clip-rule="evenodd"/><path fill="#AA99EC" d="M154.812 110.522c.982.103.545.103 2.086.103a.978.978 0 0 0 0-1.955c-1.609 0-1.015-.001-1.885-.092-.854-.089-1.337-.256-1.695-.509a3 3 0 0 1-.632-.596c-.255-.323-.425-.756-.517-1.542-.095-.81-.097-1.867-.097-3.391v-2.9c0-.267 0-.906.281-1.378.173-.29.394-.534.622-.658a2.6 2.6 0 0 1 1.233-.312l1.041.036c.38.008.823-.004 1.251-.119a2.42 2.42 0 0 0 1.709-1.709c.115-.428.127-.871.119-1.251l-.036-1.04c0-.469.124-.876.341-1.254.127-.22.348-.423.653-.6.462-.269 1.015-.271 1.353-.273l.993-.002c1.834 0 2.501.014 3.005.19.872.308 1.538.95 1.848 1.735.078.197.133.455.162.903.03.457.031 1.04.031 1.88v5.113a.974.974 0 1 0 1.947 0v-5.146c0-.8 0-1.447-.035-1.975-.036-.545-.111-1.03-.294-1.495-.529-1.34-1.638-2.373-3.014-2.858-.859-.303-2.331-.303-3.886-.302-2.84 0-4.526 0-5.909.487-2.22.782-3.994 2.444-4.837 4.58-.281.712-.406 1.477-.466 2.394-.059.9-.059 2.013-.059 3.432v2.583c0 1.448 0 2.621.11 3.558.114.974.357 1.811.927 2.53a5 5 0 0 0 1.034.978c.745.526 1.606.75 2.616.855" opacity=".4"/><path fill="#AA99EC" d="M129.894 138v-8.8h1.952v1.776h.544l-.592.48q0-1.12.656-1.76.672-.656 1.824-.656 1.344 0 2.096.864t.752 2.416v.832h-2v-.736q0-.816-.416-1.232t-1.184-.416q-.784 0-1.216.48-.416.48-.416 1.36V138zm7.978 0 3.072-4.544-2.864-4.256h2.256l1.36 2.16q.128.192.224.432l.176.384q.063-.144.176-.384.111-.24.224-.432l1.36-2.16h2.272l-2.864 4.256L146.32 138h-2.272l-1.52-2.416a4 4 0 0 1-.24-.448 7 7 0 0 0-.192-.384l-.176.384q-.112.24-.24.448L140.144 138zm13.177.16q-.672 0-1.088-.4-.4-.416-.4-1.072 0-.672.4-1.072.416-.416 1.088-.416t1.072.416q.416.4.416 1.072 0 .656-.416 1.072-.4.4-1.072.4m9.098 0q-1.136 0-1.984-.416a3.2 3.2 0 0 1-1.296-1.2q-.464-.784-.464-1.84v-2.208q0-1.072.464-1.84a3.1 3.1 0 0 1 1.296-1.184q.848-.432 1.984-.432 1.649 0 2.64.864.992.848 1.056 2.32h-1.968q-.048-.689-.512-1.056-.464-.384-1.216-.384-.816 0-1.28.448-.464.432-.464 1.248v2.224q0 .816.464 1.264t1.28.448q.752 0 1.216-.368.464-.384.512-1.072h1.968q-.064 1.472-1.056 2.336-.992.848-2.64.848m8.81-.016q-1.12 0-1.952-.432a3.06 3.06 0 0 1-1.28-1.216q-.448-.8-.448-1.872v-2.048q0-1.087.448-1.872a3.06 3.06 0 0 1 1.28-1.216q.832-.432 1.952-.432 1.136 0 1.952.432.832.432 1.28 1.216t.448 1.872v2.048q0 1.073-.448 1.872a3.06 3.06 0 0 1-1.28 1.216q-.816.432-1.952.432m0-1.744q.8 0 1.232-.432.448-.448.448-1.28v-2.176q0-.848-.448-1.28-.432-.432-1.232-.432-.784 0-1.232.432t-.448 1.28v2.176q0 .832.448 1.28.448.432 1.232.432m5.386 1.6v-8.8h1.952v1.68h.544l-.592.464q.015-1.056.672-1.68.655-.624 1.744-.624 1.296 0 2.064.864.784.864.784 2.32V138h-2v-5.536q0-.816-.416-1.248-.417-.448-1.152-.448-.752 0-1.184.448-.416.448-.416 1.28V138zm11.721.16q-1.28 0-2.08-.912-.784-.912-.784-2.448v-2.384q0-1.552.784-2.464.8-.912 2.08-.912 1.185 0 1.872.752.688.737.688 2.016l-.592-.832h.464l-.064-2.192v-2.464h2V138h-1.952v-1.776h-.448l.576-.832q0 1.28-.688 2.032-.672.736-1.856.736m.752-1.728q.768 0 1.184-.464.432-.464.432-1.312v-2.112q0-.848-.432-1.312-.416-.464-1.184-.464t-1.2.416q-.416.416-.416 1.28v2.272q0 .848.416 1.28.432.416 1.2.416"/></svg>

<svg width="320" height="232" viewBox="0 0 320 232" fill="none" xmlns="http://www.w3.org/2000/svg">
<path fill-rule="evenodd" clip-rule="evenodd" d="M165.118 103.222C164.757 103.641 164.804 104.272 165.222 104.633L167.062 106.218C167.428 106.534 167.649 106.726 167.79 106.875C167.649 107.024 167.428 107.216 167.062 107.532L165.222 109.118C164.804 109.478 164.757 110.11 165.118 110.528C165.478 110.946 166.11 110.993 166.528 110.633L168.368 109.047C168.382 109.034 168.397 109.022 168.411 109.009C168.76 108.709 169.095 108.42 169.334 108.15C169.596 107.854 169.875 107.437 169.875 106.875C169.875 106.313 169.596 105.896 169.334 105.6C169.095 105.33 168.76 105.042 168.411 104.741C168.397 104.728 168.382 104.716 168.368 104.703L166.528 103.118C166.11 102.757 165.478 102.804 165.118 103.222Z" fill="#AA99EC"/>
<path fill-rule="evenodd" clip-rule="evenodd" d="M162.632 103.222C162.993 103.641 162.946 104.272 162.528 104.633L160.688 106.218C160.322 106.534 160.101 106.726 159.96 106.875C160.101 107.024 160.322 107.216 160.688 107.532L162.528 109.118C162.946 109.478 162.993 110.11 162.632 110.528C162.272 110.946 161.641 110.993 161.222 110.633L159.382 109.047C159.368 109.034 159.353 109.022 159.339 109.009C158.99 108.709 158.655 108.42 158.416 108.15C158.154 107.854 157.875 107.437 157.875 106.875C157.875 106.313 158.154 105.896 158.416 105.6C158.655 105.33 158.99 105.042 159.339 104.741C159.353 104.728 159.368 104.716 159.382 104.703L161.222 103.118C161.641 102.757 162.272 102.804 162.632 103.222Z" fill="#AA99EC"/>
<path opacity="0.4" d="M154.812 110.522C155.794 110.625 155.357 110.625 156.898 110.625C157.437 110.625 157.875 110.187 157.875 109.648C157.875 109.108 157.437 108.67 156.898 108.67C155.289 108.67 155.883 108.669 155.013 108.578C154.159 108.489 153.676 108.322 153.318 108.069C153.076 107.898 152.864 107.697 152.686 107.473C152.431 107.15 152.261 106.717 152.169 105.931C152.074 105.121 152.072 104.064 152.072 102.54L152.072 99.64C152.072 99.373 152.072 98.7344 152.353 98.2623C152.526 97.9713 152.747 97.7282 152.975 97.6044C153.341 97.4048 153.762 97.2915 154.208 97.2915L155.249 97.328C155.629 97.3359 156.072 97.3239 156.5 97.2091C157.334 96.9857 157.986 96.3343 158.209 95.5003C158.324 95.0721 158.336 94.6286 158.328 94.2485L158.292 93.2081C158.292 92.7405 158.416 92.3333 158.633 91.9549C158.76 91.7343 158.981 91.5324 159.286 91.3551C159.748 91.0862 160.301 91.0837 160.639 91.0822C160.977 91.0807 161.334 91.0795 161.632 91.0795C163.466 91.0795 164.133 91.0935 164.637 91.2708C165.509 91.5783 166.175 92.2199 166.485 93.0053C166.563 93.2019 166.618 93.4603 166.647 93.9083C166.677 94.365 166.678 94.9479 166.678 95.7882V100.901C166.678 101.439 167.114 101.875 167.651 101.875C168.189 101.875 168.625 101.439 168.625 100.901V95.755C168.625 94.9558 168.625 94.3083 168.59 93.7797C168.554 93.2351 168.479 92.7494 168.296 92.2852C167.767 90.9459 166.658 89.9116 165.282 89.4266C164.423 89.1241 162.951 89.1244 161.396 89.125C158.556 89.1246 156.87 89.1244 155.487 89.6115C153.267 90.3937 151.493 92.0564 150.65 94.1925C150.369 94.9044 150.244 95.6691 150.184 96.586C150.125 97.4867 150.125 98.5993 150.125 100.018V102.601C150.125 104.049 150.125 105.222 150.235 106.159C150.349 107.133 150.592 107.97 151.162 108.689C151.457 109.062 151.806 109.391 152.196 109.667C152.941 110.193 153.802 110.417 154.812 110.522Z" fill="#AA99EC"/>
<path d="M129.894 138V129.2H131.846V130.976H132.39L131.798 131.456C131.798 130.709 132.017 130.123 132.454 129.696C132.902 129.259 133.51 129.04 134.278 129.04C135.174 129.04 135.873 129.328 136.374 129.904C136.875 130.48 137.126 131.285 137.126 132.32V133.152H135.126V132.416C135.126 131.872 134.987 131.461 134.71 131.184C134.433 130.907 134.038 130.768 133.526 130.768C133.003 130.768 132.598 130.928 132.31 131.248C132.033 131.568 131.894 132.021 131.894 132.608V138H129.894ZM137.872 138L140.944 133.456L138.08 129.2H140.336L141.696 131.36C141.781 131.488 141.856 131.632 141.92 131.792C141.994 131.952 142.053 132.08 142.096 132.176C142.138 132.08 142.197 131.952 142.272 131.792C142.346 131.632 142.421 131.488 142.496 131.36L143.856 129.2H146.128L143.264 133.456L146.32 138H144.048L142.528 135.584C142.442 135.445 142.362 135.296 142.288 135.136C142.213 134.976 142.149 134.848 142.096 134.752C142.053 134.848 141.994 134.976 141.92 135.136C141.845 135.296 141.765 135.445 141.68 135.584L140.144 138H137.872ZM151.049 138.16C150.601 138.16 150.239 138.027 149.961 137.76C149.695 137.483 149.561 137.125 149.561 136.688C149.561 136.24 149.695 135.883 149.961 135.616C150.239 135.339 150.601 135.2 151.049 135.2C151.497 135.2 151.855 135.339 152.121 135.616C152.399 135.883 152.537 136.24 152.537 136.688C152.537 137.125 152.399 137.483 152.121 137.76C151.855 138.027 151.497 138.16 151.049 138.16ZM160.147 138.16C159.39 138.16 158.728 138.021 158.163 137.744C157.608 137.456 157.176 137.056 156.867 136.544C156.558 136.021 156.403 135.408 156.403 134.704V132.496C156.403 131.781 156.558 131.168 156.867 130.656C157.176 130.144 157.608 129.749 158.163 129.472C158.728 129.184 159.39 129.04 160.147 129.04C161.246 129.04 162.126 129.328 162.787 129.904C163.448 130.469 163.8 131.243 163.843 132.224H161.875C161.843 131.765 161.672 131.413 161.363 131.168C161.054 130.912 160.648 130.784 160.147 130.784C159.603 130.784 159.176 130.933 158.867 131.232C158.558 131.52 158.403 131.936 158.403 132.48V134.704C158.403 135.248 158.558 135.669 158.867 135.968C159.176 136.267 159.603 136.416 160.147 136.416C160.648 136.416 161.054 136.293 161.363 136.048C161.672 135.792 161.843 135.435 161.875 134.976H163.843C163.8 135.957 163.448 136.736 162.787 137.312C162.126 137.877 161.246 138.16 160.147 138.16ZM168.957 138.144C168.21 138.144 167.56 138 167.005 137.712C166.45 137.424 166.024 137.019 165.725 136.496C165.426 135.963 165.277 135.339 165.277 134.624V132.576C165.277 131.851 165.426 131.227 165.725 130.704C166.024 130.181 166.45 129.776 167.005 129.488C167.56 129.2 168.21 129.056 168.957 129.056C169.714 129.056 170.365 129.2 170.909 129.488C171.464 129.776 171.89 130.181 172.189 130.704C172.488 131.227 172.637 131.851 172.637 132.576V134.624C172.637 135.339 172.488 135.963 172.189 136.496C171.89 137.019 171.464 137.424 170.909 137.712C170.365 138 169.714 138.144 168.957 138.144ZM168.957 136.4C169.49 136.4 169.901 136.256 170.189 135.968C170.488 135.669 170.637 135.243 170.637 134.688V132.512C170.637 131.947 170.488 131.52 170.189 131.232C169.901 130.944 169.49 130.8 168.957 130.8C168.434 130.8 168.024 130.944 167.725 131.232C167.426 131.52 167.277 131.947 167.277 132.512V134.688C167.277 135.243 167.426 135.669 167.725 135.968C168.024 136.256 168.434 136.4 168.957 136.4ZM174.343 138V129.2H176.295V130.88H176.839L176.247 131.344C176.257 130.64 176.481 130.08 176.919 129.664C177.356 129.248 177.937 129.04 178.663 129.04C179.527 129.04 180.215 129.328 180.727 129.904C181.249 130.48 181.511 131.253 181.511 132.224V138H179.511V132.464C179.511 131.92 179.372 131.504 179.095 131.216C178.817 130.917 178.433 130.768 177.943 130.768C177.441 130.768 177.047 130.917 176.759 131.216C176.481 131.515 176.343 131.941 176.343 132.496V138H174.343ZM186.064 138.16C185.211 138.16 184.518 137.856 183.984 137.248C183.462 136.64 183.2 135.824 183.2 134.8V132.416C183.2 131.381 183.462 130.56 183.984 129.952C184.518 129.344 185.211 129.04 186.064 129.04C186.854 129.04 187.478 129.291 187.936 129.792C188.395 130.283 188.624 130.955 188.624 131.808L188.032 130.976H188.496L188.432 128.784V126.32H190.432V138H188.48V136.224H188.032L188.608 135.392C188.608 136.245 188.379 136.923 187.92 137.424C187.472 137.915 186.854 138.16 186.064 138.16ZM186.816 136.432C187.328 136.432 187.723 136.277 188 135.968C188.288 135.659 188.432 135.221 188.432 134.656V132.544C188.432 131.979 188.288 131.541 188 131.232C187.723 130.923 187.328 130.768 186.816 130.768C186.304 130.768 185.904 130.907 185.616 131.184C185.339 131.461 185.2 131.888 185.2 132.464V134.736C185.2 135.301 185.339 135.728 185.616 136.016C185.904 136.293 186.304 136.432 186.816 136.432Z" fill="#AA99EC"/>
</svg>
